X:36
T:Newport Lasses
C:Roy Watrous, 1967
S:The Watrous Book, 1992
M:6/8
L:1/8
Q:1/8=270
K:D
%%MIDI program 72
%%MIDI transpose 8
%%MIDI ratio 3 1
.A2A {B}AFG|Afe d2c|.B2B {c}BGA|Bgf e2f|afd gec|
def A2A|Bgf edc|d6::.f2f faf|.e2e ege|.d2d dfd|
Bcd A3|f2f fga|e2e efg|afd gec|d6:|]

